X: 20730
T: Johnny Cronin's
R: reel
M: 4/4
K: Gmajor
G2 FG EFDE|G3 A Bcdg|eB ~B2 dBAF|GBAG FDEF|
G2 FG EFDE|G3A Bcdg|eB ~B2 dBAF|GBAF G2 (3DEF:|
|:Bdd^c d2 dA|Bd d2 efgd|Bdd^c dBGB|cBAG FGAc|
Bdd^c d2 dA|Bd d2 efga|bgaf gedB|cBAG FGAc:|
|:BGGF G3A|BG G2 Bdgd|BGGF G2 AB|cBAG FGAc|
BGGF G3A|BG G2 Bdga|bgaf gedB|cBAG FGAc:|

